X:4992
T:Famous Ballymote
R:reel
D:Bothy Band: 1975
Z:id:hn-reel-399
M:C|
K:Dmix
FDAD FA~A2|cABG EFGE|FDAD FAAB|cAGE EDDE:|
|:FDFA d2ed|cABG EFGE|FDFA d2ed|cAGE EDDE:|
